X: 4
T: The Ballydesmond
R: polka
M: 2/4
L: 1/8
K: Ador
|: AB |c2 B2 | A2 G>A | B/c/d ed | g2 ed |
ea g/a/g/e/ | dB GG/A/ | Be dB | A2 :|
|: Bd |ea ag/e/ | dg gd | ea ab | g>f gd |
ea g/a/g/e/ | dB GG/A/ | Be dB | A2 :|


Tune 239	Setting 12945

